packages/icons/src/svg/locked.svg

<svg xmlns="http://www.w3.org/2000/svg" viewBox="0 0 16 16"><path d="M8,0C4,0,4,4,4,4V7L2,7.0005V16H14V7H12V4S12,0,8,0ZM8,2a1.95878,1.95878,0,0,1,2,2V7H6V4A1.95878,1.95878,0,0,1,8,2Z"/></svg>

<svg xmlns="http://www.w3.org/2000/svg" viewBox="0 0 16 16">
	<path d="M8 0C4 0 4 4 4 4v3H2v9h12V7h-2V4s0-4-4-4zm0 2a1.959 1.959 0 0 1 2 2v3H6V4a1.959 1.959 0 0 1 2-2z"/>
</svg>
